X:1
T: Cailín Donn [1], An (The Brown-Haired Girl)
M:3/4
L:1/8
Q:"With expression"
S:Joyce - Old Irish Folk Music and Song (1909), No. 711
Z:AK/Fiddler's Companion
K:Emin
EF | G2F2E2 | d2e2 dc | B2E2 BA | AG E2 GA | B2g2f2 | 
e3 dBA | B2e2d2 | e4 || e>f | g2f2c2 | d2e2 dc | B2E2 BA | 
AG E2 GA | B2g2 fd | e>dBAGB | AG E2E2 | E4 || 
